X:225
T:Pastime With Good Company
C:Henry VIII
L:1/8
M:4/4
O:England
Z:Andy Hornby
%%TUNEURL: http://www.leeds.ac.uk/music/Info/RRTuneBk/gettune/00000db0.html
%%ID:00000db0
K:G
A2AA c3c|B3/2c/2 BA G3G|c3c B3A|1GA ^G/2F/2G A4:|2GA ^G/2F/2G A3|
|:G|A2B2c3G|A2B2c3c|B3/2c/2 BA G3G|A2B2c3c|
A2B2c3c|1BA ^G/2F/2G A3:|2BA ^G/2F/2G A3|]
